X:1
T:A Song of Peace
T:Charles Villiers Stanford (1852-1924) Opus 113, No. 4
T:Isaiah 11
T:A Song of Peace
C:Charles Villiers Stanford (1852-1924)
C:Opus 113, No. 4
Z:Isaiah 11
%%score 1 { ( 2 3 ) | ( 4 5 ) } 6
L:1/8
Q:1/4=120
M:4/4
K:C
V:1 treble nm="Voice" snm="Voice"
V:2 treble nm="Organ" snm="Org."
V:3 treble 
V:4 bass 
V:5 bass 
V:6 bass nm="Pedals" snm="Ped."
V:1
"^Allegro" z8 | z4 z2!mp! DD | (EF) GE A4 | G2 EC A3 A | c2 G2 z2 DD | (EF) GE A2 Bc | d8 | z8 | %8
w: |There shall|come _ forth a rod|out of the stem of|Jes- se, and a|branch _ shall grow out of his|roots;||
 z2 GG!<(! cB c!<)!A | e3 d!>(! c3!>)! E | G4 G4 | z4 z2 z A | c2 Bc A2 D2 | z cBc A2 D2 | %14
w: and the spi- rit of the|Lord shall rest up-|on him,|The|spi- rit of wis- dom,|and un- der- stand- ing,|
 z2 z B!<(! c2 Ac | B2 ^G!<)!E e4 | z2 z G _e2 _de |!>(! c2 _A2 z!>)! FGA |!p! _B4 B3 G | c4 z4 | %20
w: the spi- rit of|coun- sel and might,|the spi- rit of|know- ledge, and of the|fear of the|Lord;|
 z4 z2!mf! GA | _B2 G2 d4 | d2 GA _B2 AG | c8 | z8 | c2 cA"^cresc. poco a poco" _e4 | %26
w: and he|shall not judge|af- ter the sight of his|eyes,||nei- ther re- prove|
 _e2 AA cc _BA | d4 z2 cd | _e3 c d2 _BG | _A3 _B c4 | z2 _EE _A3 G | _B3 =A G2 G2 | _B4 A3 G | %33
w: af- ter the hear- ing of his|ears: And with|right- eous- ness shall he|judge the poor,|and re- prove with|e- qui- ty the|meek of the|
 d6 z2 | z8 | z8 | z2!f! d2 d2 d2 | g3 G B4- | B2 ce d2 cd | B4 z4 | z BBc d2 ef | f2 dB e3 e | %42
w: earth;|||and he shall|smite the earth|_ with the rod of his|mouth,|and with the breath of his|lips shall he slay the|
 !>!eA z2 z4 | z4 z2!ff! A2 |"^largamente" c3 e e4- | e2 e2 e3 e | d2 f2 e2 d2 | c6 d2 | %48
w: wick- ed.|And|right- eous- ness|_ shall be the|gir- dle of his|loins, and|
"^rit." e3 c A2 c2 | d2 B2 A2 G2 | !fermata!A8 |"^Tempo I" z8 | z4 z2 z!p! _e | %53
w: faith- ful- ness the|gir- dle of his|reins.||The|
"^tranquillo" _e4 e2 cd | _e6 cA | d4 z4 | z4 z2 cc | =e c3 A2 c2 | ^F4 A3 d | d4 z2 =FG | %60
w: wolf al- so shall|dwell with the|lamb,|and the|leo- pard shall lie|down with the|kid, and the|
 _A2 A>_B c4 | f2 _B2 z2 _AB | c4 F3 _B | (_B3 c) B4 | z4"^semplice" G3 G | e2 d2 c2 d2 | (d6 e2) | %67
w: calf and the young|li- on and the|fat- ling to-|ge- * ther;|and a|lit- tle child shall|lead _|
 c8 | z8 | z2!mf! _A2 _B2 c2 | _d4 c3 c | f6 z2 | z4 z2 c2 | _d6 d2 | (_c2 _e2 _d2) c2 | %75
w: them.||They shall not|hurt nor des-|troy,|in|all my|ho- * * ly|
 _c2 _B2 z4 | z8 | z4 z2 ^GG |"^cresc." ^c4 B2 ^G2 | e6 dB | B2 c2 e3 c |!f! g6 ce | %82
w: moun- tain:||For the|earth shall be|full of the|know- ledge of the|Lord as the|
"^rit." d2 c2 f2 e"^Più animato"d | c6 z2 | z2 z G A2 A2 | c6 ee | d2 f2 e2 d2 | g2 c2 z4 | %88
w: wa- ters co- ver the|sea.|And in that|day there shall|be a root of|Je- se,|
 z4 !>!c2 !>!c2 | !>!c6 de | e2 c2 e2 d"^sempre più animando"e | c2 c2 z4 | z4 A2 A2 |!<(! c8 | %94
w: which shall|stand for an|en- sign un- to the|peo- ple,|And his|rest|
 c4!<)! d4 |!ff! g8- | g8- |"^rit." g4 c2 z2 | z8 | z8 |] %100
w: shall be|glo-||* rious.|||
V:2
!p! (EFGE A3) (A | EFGE A3) (A | EFGE A3) (A | EFGE A3) (A | EFGE A3) (A | EFGE AG^FE) | %6
 (DCB,D EBA^F) | (DCB,D EBA^F) | (DCB,D CBA=F | EBed cGCA) | (B,C[A,E][B,-D]) (GE) (ED) | %11
 (EFGE A3) (A | EFGE A3) (A | EFGE A3) A | (e2 de!<(! c3) (c | e2 =de c3)!<)! (c | %16
 g2 fg!>(! _ec_Bc | _AcFA!>)! _DF_B,_E) | (_B,2 _A2 G2 F2) | (=EFGE d3) (d | GA_BG d3) (d | %21
 GA_BG d3) (d | GA_Bc dBAG) | (A_BcA _e3) (e | A_BcA"^poco cresc." _e3) (e | A_BcA _e3) e | %26
 (A_Bcd _ecBA) | (d^cd=e =fd=c_A) | (_B=ABc dBG_E) | (_AGA_B cAFD) | (_BG_EC) (_AFD_B,) | %31
 (G=A_B^F G4-) | G(A_B^F A3 G) |!mf! z2 .[G=Bd]2 !tenuto![^FAd]2 z2 | %34
 z2 .[EGB]2 !tenuto![D^FB]2 z2 | [EA]2 c2 B2 A2 | z2 .[GBd]2 !tenuto![^FAd]2 z2 | %37
 z2 .[EGB]2 !tenuto![D^FB]2 z2 | z2 c2 B2 A2 | z2 .[Bd=f]2 !tenuto![Acf]2"^cresc." z2 | %40
 z2 .[GBd]2 !tenuto![FAd]2 z2 | [D^GB]2 d2 c2 B2 |"^più"!f! z2 .[A=fa]2 !tenuto![Aea]2 z2 | %43
 z2 .[EBde]2 !tenuto![EAce]2 z2 | z2 ([E-c]2 [DEB]2) ([C-E-A]2 | G2 A2 B2 c2 | d2 c2 [Ge]2 [F-d]2 | %47
 c6) B2- | B2 A6- | A2 G2 [A,CF]2 [G,DG]2 | !fermata![A,E]8 | =cd_ec g3 g | cd_ec g3 g | %53
 cd_ec g3 g | cd_ec gecA- | A=BcA =e3 e | ABcA e3 e | A=BcA e3 e | ABcA ecA^F | =FG_AF c3 c | %60
 FG_AF c3 c | FG_AF c3 c | FG_AF cAFD | _BG_EC _AFD_B, | G4 F4 | E2 G2 c2 A2 | %66
 [B,G]2 [CA]2 [A,F-]2 [B,F]2 | [CE] z!mf! c2 c2 c2 | (_B2 _d2 c2 B2 | _A8) | (G2 _B2 _A2 G2) | %71
 F2- [Ff]2 [_Af]2 [=Af]2 | (_e2 _g2 f2 e2 | _d2) (F2 _G2 _B2 |!>(! _E4 F4)!>)! | %75
!p! F_G_AF"^cresc." _c4 | _A_B_cA _e4 | ^A=B^cA =e4 | ^c^dec ^g4 | ^gabg!mf! [=fb=d']4- | %80
 [fbd']2 [eac']2 [cea]2 [Ace]2 | [Bg]4 [Gce]2 [EAc]2 | G4!mf! [FG]4 | EFGE A3 A | EFGE A3 A | %85
 EFGE c4- | c2 (B2 e2 d2 | c)(edc g4) | Ac_BA e4 | FAGF c4 | [EAe]4 B4 | EFGE c4 | EFGE A4 | %93
 EFGE c4 | EFGE A4 | GFEF GAGd | cdcf efed | [Gcg]2 z2!ff! z2 [Gcg]2 | %98
 [Aca]2 [FAdf]2 [E^GBe]2 [DAd]2 | !fermata![E=Gce]8 |] %100
V:3
 C4- CEDB, | C4- CEDB, | C4- CEDB, | C4- CEDB, | C4- CEDB, | C4 C3 A, | x4 E4 | x4 E4 | x4 C4 | %9
 E2 GF EG C2 | x4 B,2 A,B, | C4- CEDB, | C4- CEDB, | C4- CEDB, | ^GABG E=G^F^D | ^GABG EBAE | %16
 BcdB G2 FG | _E=EF_E _DC_B,_A, | _B,8- | B,4 FAGF | E4 FAGF | E4 FAGF | E8 | ^F4 G_BAG | %24
 ^F4 G_BAG | ^F4 G_BAG | ^F8 | G4 _A2 D2 | _E4 D2 C2 | D4 C4 | _B,2 _A,4 G,2 | x8 | D4 E4 | x8 | %34
 x8 | x2 EG ^FDEF | x8 | x8 | x2 EG ^FDEF | x8 | x8 | x2 FA ^GE^FG | x8 | x8 | x8 | %45
 [CE]2- [CEG]4 [EG]2 | [FA]4 B4 | [FA]2 [EG]2 [DF]4 | [CE]4 [DF]2 [CE]2 | [B,D]4 x4 | %50
 D4 !fermata!^C4 | A4 _BdcB | A4 _BdcB | A4 _BdcB | A4 G4 | ^F4 GBAG | ^F4 GBAG | ^F4 GBAG | %58
 ^F4 E3 D | D4 _EGFE | D4 _EGFE | D4 _EGFE | D4 C3 _B, | _B,3 _A, A,4 | G,4 =A,2 =B,2 | C2 B,2 C4 | %66
 x8 | x2 z2 _E4 | F4 _E2 _D2 | C4 _D2 _E2 | F4 =E4 | x8 | _B4 _A2 _G2 | F2 _D6 | _C4 _D2 C2 | %75
 _B,4 (_E_GFE | D4) (_E_B_A_G | =E4) (^GB^AG | ^^F4) (^G^d^cB | =d4) x4 | x8 | e2 d2 x4 | %82
 [B,D]2 [A,E]2 A,2 B,2 | C4- CEDB, | C4- CEDB, | C4 E^FGA | =F8 | E4 _BdcB | A F3 G_BAG | %89
 F D3 EGFE- | x4 G2 [D=F]2 | C4 CDEC | C4 CEDB, | C4 CDEC | C4 CEDB, | C2 B,C DE D2 | GAGF GFGA | %97
 x8 | x8 | x8 |] %100
V:4
 G,4 F, A,3 | G,4 F, A,3 | G,4 F, A,3 | G,4 F, A,3 | G,4 F, A,3 | G,4 A,3 ^F, | G,6 ^F,A, | %7
 G,6 ^F,A, | G,6 =F,A, | G,6- G,^F, | =F,E,G,F, E,G, G,F, | G,F,E,G, F, A,3 | G,F,E,G, F, A,3 | %13
 G,F,E,G, F, A,3 | B,A,^G,B, A, C3 | B,A,^G,B, A, C3 | DCB,D C_E _E,2 | C_B,_A,_G, F,_E,_D,C, | %18
 _E,2 =D,2 E,2 F,2 | G,F,=E,G, _B,4 | _B,A,G,B,- B,4 | _B,A,G,B,- B,4 | _B,A,G,A, B,G,CB, | %23
 C_B,A,C- C4 | C_B,A,C- C4 | C_B,A,C- C4 | C_B,A,B, CA, D2- | D=ED^C D_B,_A,F, | %28
 G,^F,G,_A, _B,G,_E,C, | F,=E,F,G, _A,F,D,_B,, | G,_E,C,_A,, F,D,_B,,G,, | _B,=A,G,A, B,4- | %32
 B,A,G,A, _B,4 | z2 .[G,=B,D]2 !tenuto![^F,A,D]2 z2 | z2 .[E,G,B,]2 !tenuto![D,^F,B,]2 z2 | %35
 x2 C2 B,2 A,2 | z2 .[G,B,D]2 !tenuto![^F,A,D]2 z2 | z2 .[E,G,B,]2 !tenuto![D,^F,B,]2 z2 | %38
 z2 C2 B,2 A,2 | z2 .[B,D=F]2 !tenuto![A,CF]2 z2 | z2 .[G,B,D]2 !tenuto![F,A,D]2 z2 | %41
 x2 D2 C2 B,2 | z2 .[A,C=F]2 !tenuto![A,CE]2 z2 | z2 .[E,B,D]2 !tenuto![E,A,C]2 z2 | %44
 z2 [E,-C]2 [D,E,B,]2 [C,-E,-A,]2 | [C,E,G,]2- A,2 B,2 C2 | D2 C2 [G,E]2 [F,-D]2 | C6 B,2- | %48
 B,2 A,6- | A,2 G,2 [C,F,]2 D,2- | !fermata!E,8 | _E4- EFED | _E4- EFED | _E4- EFED | _EDCE A,4 | %55
 C4- CDCB, | C4- CDCB, | C4- CDCB, | CB,A,C ^F,3 A, | _A,4- A,_B,A,G, | _A,4- A,_B,A,G, | %61
 _A,4- A,_B,A,G, | _A,G,F,A, D,3 F, | C,3 _E, _B,,3 D, | _E,2 _B,,2 C,2 D,2 | G,2 F,2 =E,2 ^F,2 | %66
 =F,2 E,2 D,2 G,2- | G, z z2 _A,2 G,2 | F,4 G,4 | _A,2 G,2 F,2 _E,2 | _D4 C2 _B,2 | _A,4 _D4- | %72
 D4 C4 | _B,2 _A,2 _G,4- | G,4 F,4 | _A,_G,F,A, G,4 | _C_B,_A,C B,4 | ^C=B,^A,C B,4 | E^D^CE D4 | %79
 E^F^GE [=FB=d]4- | [FBd]2 [EAc]2 [CEA]2 [A,CE]2 | [B,G]4[K:bass] x4 | F,2 E,2 D,2 G,2 | %83
 G,4 F, A,3 | G,4 F, A,3 | C,D,E,C, B,A,G,^F, | D4 C2 B,2 | _B,4 DFED | CEDC _B,DCB, | %89
 A,C=B,A, G,B,A,G, | [^F,A,C]4 [G,B,]4 |"^sempre cresc. ed accel." G,=F,E,G, E,D,C,E, | %92
 G,F,E,G, A,G,F,A, | G,F,E,G, E,D,C,E, | G,F,E,G, A,G,F,A, | x4 B,CB,A, | %96
 [E,G,][F,A,][E,G,][A,C] [G,B,][A,C][G,B,-][F,B,] | [E,C]2 z2 z2 [C,-G,C-]2 | %98
 [C,F,C]2 [F,A,D]2 [^G,B,]2 A,B, | !fermata![E,=G,C]8 |] %100
V:5
 C,D,E,C, F,4 | C,D,E,C, F,4 | C,D,E,C, F,4 | C,D,E,C, F,4 | C,D,E,C, F,4 | C,D,E,C, ^F,E,D,C, | %6
 B,,A,,G,,B,, C,4 | B,,A,,G,,B,, C,4 | B,,A,,G,,B,, A,,4 | B,,4 C,B,, A,,2 | x8 | x4 F,4 | x4 F,4 | %13
 x4 F,4 | x4 A,4 | x4 A,4 | x8 | x8 | _B,,8 | x8 | C,8 | C,8 | C,8 | C,8 | C,8 | C,8 | C,6 x2 | %27
 x8 | x8 | x8 | x8 | ^C,8 | D,4 _B,4 | x8 | x8 | [E,A,]2 E,G, ^F,D,E,F, | x8 | x8 | %38
 x2 E,G, ^F,D,E,F, | x8 | x8 | [D,^G,B,]2 F,A, G,E,^F,G, | x8 | x8 | x8 | x2 [C,E,G,]4 [E,G,]2 | %46
 [F,A,]4 B,4 | [F,A,]2 [E,G,]2 [D,F,]4 | [C,E,]4 [D,F,]2 [C,E,]2 | [B,,D,]4 x4 | %50
 D,4 !fermata!^C,4 | F,8 | F,8 | F,8 | F,4 _E,4 | D,8 | D,8 | D,8 | D,4 C,4 | _B,,8 | _B,,8 | %61
 _B,,8 | x8 | x8 | x8 | x8 | x8 | x8 | x8 | x8 | x8 | x8 | x8 | x8 | x8 | x8 | x8 | x8 | x8 | %79
 B,4 x4 | x8 | E2 D2[K:bass] [G,CE]2 [E,A,C]2 | x8 | C,D,E,C, F,4 | C,D,E,C, F,4 | G,4 x4 | x8 | %87
 x8 | x8 | x8 | x8 | x8 | x8 | x8 | x8 | E,A,G,A, F,4 | x8 | x8 | x4 x2 A,2 | x8 |] %100
V:6
 z8 | z8 | z8 | z8 | z8 | z8 | z8 | z8 | z8 | z8 |!p! G,,8 | C,,8- | C,,8- | C,,6 D,,2 | E,,8- | %15
 E,,6 ^F,,2 | G,,8 | _A,,8 | (G,,2 F,,2 _E,,2 _D,,2 | C,,8) | z8 | z8 | z4 z2 .C,2 | .C,,2 z2 z4 | %24
 z8 | z8 | z4 z2 C,2 | _B,,8- | B,,8- | B,,6 (_A,,2 | G,,2 _A,,2 F,,2 G,,2 | %31
 _E,,4-) E,,(E,,D,,E,, | D,,4 ^C,,4) | D,,4 z2 D,2 | E,2 z2 z2 B,,2 | C,2 A,,2 D,2 C,2 | %36
 B,,4 z2 D,2 | E,2 z2 z2 B,,2 | C,2 A,,2 D,2 D,,2 | G,,2 z2 z2 D,2 | G,2 z2 z2 B,,2 | %41
 E,2 E,,2 E,2 D,2 | C,4 z2 B,,2 | A,,4 z2 G,,2 | ^F,,8 | G,,8 | G,,8 | G,,8- | G,,8- | %49
 G,,4 A,,2 _B,,2 | !fermata!A,,8 | z8 | z8 | z8 | z8 | z8 | z8 | z8 | z8 | z8 | z8 | z8 | %62
 (_B,,4 _A,,4 | G,,4 F,,4 | _E,,4 D,,4 | C,,2 G,,2 A,,2 D,,2 | G,,8 | C,) z z2 (C,,4 | %68
 _D,,4 _E,,4 | F,,2) (_E,2 _D,2 C,2 | _B,,4 C,4 | _D,4) (F,,4 | _G,,4 _A,,4 | %73
 _B,,2) (_C,2 B,,2 _E,,2 | _A,,4 _D,,4) | =D,,4 _E,,4 | F,,4 _G,,4 | =G,,4 ^G,,4 | ^A,,4 B,,4- | %79
 B,,4 z2 ^G,2 | A,4 ^F,,4 | =F,,4 E,,2 ^F,,2 | G,,8 | C,8- | C,8- | C,4 A,,4 | G,,8 | C,8- | C,8- | %89
 C,8 | A,,4 G,,4 | C,4 A,,4 | G,,4 F,,4 | C,4 A,,4 | G,,4 F,,4 | C,,8- | C,,8- | %97
 [C,,C,]2 z2 z2 E,,2 | F,,2 D,2 E,2 F,2 | !fermata![C,,C,]8 |] %100

